X: 8
T:Redwing
% Nottingham Music Database
S:Kevin Briggs, via EF
P:ABBABBA
M:4/4
L:1/4
K:F
P:A
f/2e/2|"Bb"d2 B2|"Bb"df ed|"F"c2 A2-|"F"Ac dc|"C7"c2 G2-|"C7"Gc dc|"F"c2 A2-|
"F"A2 fe|"Bb"d2 d2|"Bb"df ed|"F"c2 A2-|"F"Ac dc|"C7"c2 G2-|"C7"GB AG|"F"F4-|\
"F"F3:|
P:B
c|"F"FF FA|"F"cc cF|"Bb"Bd fd|"F"c3A|"C7"BG CB|"F"AF CA|"G7"GG f3/2f/2|\
"C7"ec c2|
"F"FF FA|"F"cc cF|"Bb"Bd fd|"F"c3F|"C7"BG CB|"F"AF CA|"Gm"GD "C7"EC|"F"F3:|<end>
<start>
